X: 31
M: C
L: 1/16
K: D
{f}e6 E2 | F4 A4 (f3ed2) B2 | A8 {d}D4 (D3E) |
(c2d2) (e2f2) | (g3a) (f3g) {f}e6 A2 | (d3ef2) g2 (a3ba2) g2 |
(f3g agfe) d6 e2 | (c3BA2) B2 (c3de2) f2 |
(g3a ba) (gf) {f}e6 E2 | F4 A4 (f3ed2) B2 |

